!!!OTL: Waldmaennchen.
!!!OTL-incipit:NICHT SCHLIEF DIE MUTTER DIE LANGE NACHT
!!!ARE: Europa, Mitteleuropa, Deutschland
!!!SCT: F0241A
!!!TXL: @@DE
!!!YEM: Copyright 1995, estate of Helmut Schaffrath.
**kern	**text
*ICvox	*
*clefG2	*
*M6/8	*
*k[b-]	*
*F:	*
!LO:TX:a:t=Langſamer.	!
{8a	6._Nicht
=1	=1
8a	ſchlief
8r	.
8a	die
8.a	Mut-
16a	-ter
8a	die
=2	=2
8b-/	lan-
8r	.
8b-/	-ge
8b-/	Nacht,
8r}	.
{8b-/	wach
=3	=3
8.b-/L	hielt
16ccJ	.
8b-/	ſie
8.b-/	Kummer
16cc/	.
8b-/	und
=4	=4
4a	Harm;
8r	.
4r}	.
{16aL	und
16b-J	.
=5	=5
8cc/	als
8r	.
8cc/	am
8.cc/	Morgen
16cc/	.
8cc/	der
=6	=6
8.ddL	Tag
16eeJ	.
8ff	erwacht,
8ffL	.
8ee}J	.
!LO:TX:a:t=Ganz langsam.	!
{8dd	hielt
=7	=7
8.cc/	todt
16dd/	ſie
8cc/	den
8b-/	Knahen
8a	.
8g	im
=8	=8
4f	Arm.
8r	.
4r}	.
==	==
!!!AGN: Jugend - Lied, erzaehlend; Tod
!! Strophenvariante zu F0241
!!!ONB: ESAC (Essen Associative Code) Database: FINK
!!!AMT: compound duple
!!!AIN: vox
!!!EED: Helmut Schaffrath
!!!EEV: 1.0
!!!GTL: Jugendlieder
!!!source: Musikalischer Hausschatz der Deutschen. Eine Sammlung von über 1000 Liedern und Gesängen mit Singstimmen und Klavierbegleitung. Leipzig, Litterarisches Verlags-Haus.
!!!page: 145
!!!URL-scan: https://www.digitale-sammlungen.de/en/view/bsb11144622?page=142,143
!!!ENC: Anna Maria Matuszewska
!!!EEV: 2024/07/26
*-	*-